X:141
T:Steirischer aus Vordernberg (3.)
C:traditionell
R:Steirer
A:Vordernberg, Steiermark
B:"Wer tanzt nach meiner Pfeife", Sepp Pichler, Steirisches Volksliedwerk, Graz, undatet
S:manuscript F.Lechner, Murau, Steirisches Volkslied Archiv 2 15
N:in der quelle in G im buch in F
Z:abc transcription Simon Wascher
F:http://simonwascher.info/TradArchiv/
M:3/4
L:1/8
K:C
|: eg |\
df e3 c | Bcdefa | eg f3 B | cdefge |\
df e3 c | Bcdefa | eg f3 B |1 c4 :|\
###########################[2 Hc6 ||
